-----BEGIN PGP PUBLIC KEY BLOCK-----

xsFNBGOrCckBEADNcJUEATinOnryWPrc9nC3CrU6sDuJArVki6KMx3lkfSSA
TFfNreVv+OcrLtGD1E+jwSlYVX0c+7LhuuMLeJuORD9JqXNSdbalnhEOijmz
Z/Efgc3uHWP3Vp2Ljdrp8YVGLDJwbUwSQv3xEfn5UioSA3FhuOigrpmLTPST
R1TrjT81jQC2e6ychAkb0u225yjXuY/fJqx8KV6Qoh17dudt87VAuSatK0Fo
93wECfFL9NRs4+fe4Ddiw5HqOyC6wjqaEnfpDptCKj1M+tptR3BdJhnXPl/u
xaNQ9ECpEVMGPJ4EX7plH7ReYmWFg2JsRDhtJ0A5jhQ32OUAyOAlHZIvy3X2
B2MLSbAz1CSVLCnB4M6q88XjfkbIvb9dKy6zcv8Tjg6GXH/sYR0/N6HtX5qh
qbEAzq3QSvGwwsQAWOgAfw9BDxPG3xR8RBpwH5gOXsG8l2519uHlxn1uPkAo
K67I/+iHGLS4m4lIQKkgq9zELhf8DxXfAQJc0c9OU5eVU8tRIX5YU3bGC8cP
v7DxFBJLKFNedl5MJTjQnchH0xuJ05Jvrmi7CbL5wTX4OmecUU11iWubTVCQ
cbDgnmpv+hTVc7UNzRAmDGj3TDXxe7oVGkX6iKt5JJqGPW0TO6Ge5gJ9BG4I
QgFW5kiZvGQyUjRfLQOF/8l3+6+8rC7IloLhaQARAQABzUlCcmF2ZSBMaW51
eCBSZWxlYXNlIChCcmF2ZSBMaW51eCBSZWxlYXNlKSA8YnJhdmUtbGludXgt
cmVsZWFzZUBicmF2ZS5jb20+wsG9BBMBCABnAhsDBQkSzAMABQsJCAcCAiIC
BhUKCQgLAgQWAgMBAh4HAheAFiEE2/GhFsIguMcWT5gjBoa3hCADglcFAmdk
XH0lFIAAAAAADwANbGFiZWxAYnJhdmUuY29tbGludXhfcmVsZWFzZQAKCRAG
hreEIAOCV7TcD/9AiF5eQtqjaoZ3Pwzof2UqyiK9cm683c8zncpCZb7sKFew
HtBk0i8Ufdc4jrqjHQF5G6DiSdxTqKuAtwzaxE+bl77NcA8cQO6PioIcREjU
WSYKGZ4t1fH9B5Ba45tQI9AgL7idPhRSQCqQmcrTgQKRiMcqD1sySd2zNfPZ
KJKElR9GDS2ypuzdYeeAXCtNm5PImvFDrbkk1Fv0qNJBLAgtSda9MJytAD+K
aHQ3/1DpLQAVOTsDKBvtowdx2m+H6+6ciYO8VwdT8GGMfWFRAs6Ix/uC7jO2
W+k/53vu5TUm7OyxkXQBsn8b+X70jlLtOAdSPpwb2ML9aoEE6AyqTojqiaM9
u2FDNsZP9gYow9P3Owq3tQNBYUnNRhk3A7lyWWnrkjU9icN73SYJNQcAHJg0
GOXG7a2WG0fcgTDwBApjrBE75Fh9ltM/7lgEL74y0Lnj614sV9Oet8oew7pX
McE2TdUwm6lKU0SQywamvQpHPngikYD9QBoPcqsLOXJUF0jlcK4NlrzVeSqq
VXGWtGhpU5jTmp3jlco+PlY3ck99ZnklLOoNZIDTyGxzzitu7vrE5drM0Tn2
FFTDQ9wG6QuQ7oDk3qT8hSyDu8SF2O9VOrf1SPXocdmwtbPfL9dFQ4wQ/IrJ
IRh7xViYodDvGL8V7ROrWTR5NF1ZavfmM5fGnA==
=eOxo
-----END PGP PUBLIC KEY BLOCK-----

-----BEGIN PGP PUBLIC KEY BLOCK-----

xsFNBGfYXXMBEADoa5Tv7DFt6G4OhrRZCMnE8nGSDez1VW71Qh5OEmSdVHAL
ImmB3hA3HZg+MOTzy6lBD23+JcCg4ppAkYgeN08AmSJQfsrS9Vrmojifs9Tp
jQ207ioHEqQH2/5uU0/8xFz/o8TfFMz7JwjviUmItcXz1MybAgLuRAPmjzlZ
YNVjJ8XaT2FBzrxidV9Yr/zUfzFSfX43ERhXx6hUrBCsl/mAUQ8bcOCLPX6p
X3A/2ZtdUIxTlYBgc44/WmGYihI7g0jSvFhLlA5Eo1NIQBydO6pYs6NnRe5Y
RmZCF29jPC//8bgEQCsnyfDy/uZCofkTyID9MRSxUncIeLA12yUuxGvgoD6l
M4ezdBbQRp91YngzGUQFnEXMKZHeOAkWIyOrHkzlyB9UtEnI7tAJM7PtXnSW
tXT9e3jxULkBOPtm1LFCZKjlG9UJWTg1WkpSTo+JlVzZd1Hko3N6AVj3ivCs
oL76YL/g0UeWNNNF2HeFqlaBvnxmAuxJHkp7DSydDPvst3/FqO128V5isrOW
+z8pI97SpFJAmvoPHYAwM3C6qJdvDS1rRkTFiIEhKm0X2KetnOLvdbf3jC9g
g2Z57V13r7aLWGZJhz4ZPuuQX9/ekYqZxYp0qyb7ijr2KzSXywJWK0ilRm4O
gEJx+HHqO95XFJDPgIcD+voxjcYxCbwW4FkcNwARAQABzUNCcmF2ZSBMaW51
eCBSZWxlYXNlIChCcmF2ZSBMaW51eCBSZWxlYXNlKSA8bGludXgtcmVsZWFz
ZUBicmF2ZS5jb20+wsHBBBMBCABrAhsDBQkSzAMABQsJCAcCAiICBhUKCQgL
AgQWAgMBAh4HAheAFiEER9MqdOmp4BOktJJsaNUT02pzzZYFAmfYXXYpFIAA
AAAADwARbGFiZWxAYnJhdmUuY29tbGludXhfcmVsZWFzZV9tcmsACgkQaNUT
02pzzZYXzhAAjXohBzvsNtVA9olF5tRbQkTi90bbet21LS+gw4OWGsFfNgs1
Ze1L1h81XPFrYDXL6gpMZmfSAK2PbdgcAJvJovxWR/FXvZQhj3je2zrd7JfG
wII/1g8mO5WFgscGP+ZaeddCMSO3zeOodm9EIHpR98Bpaayzl6drwwMrE5rv
Dma+TfoqvQUd2LkoSqr0tT/LaRw10m/7geDrMwmWV8tgMlaHEPBZh6P+TNtC
5kAm73uqVDzIdKC6X4SL6h8mQB8HY4ZsGX5ligiobgb2unMRfqYPeULwL2Lm
A7+5+k7GZpdDz/6cucUesHBU9Ug/7oEiVqE5xnGrA+FH4lBty0TPsVLT9+Uk
bv7ogWXkB4eUpH45hvZnR8Dmw4+FZcu2pC0U/CQYyxpmb6Xd6D3CXfTENyx2
ramUDuZzl/bcoSScdm3Mps3QAjGfOifBzSzm2eYi8QtxTSMPeaH33UjzyEUv
jVmsyGKVA7bvA9XwbS6GwIpGQI8Ls02Aws9D01MB6QxXMuhplOh3ugGlHnnv
H2RS63JsD8ZbGWbx8bh1fQCgG+nBNcik4tacZpAkRwzZ2G1TR433klJ0s3q/
6hGDqhmt/6vWxXAOfrEeBvbzFmjwJvlfq2fftag4euPiI1qQbVRqYuIgfDy5
2WwmIA32XULwHM7deyNKrp8RvX1eHyylocs=
=2dD0
-----END PGP PUBLIC KEY BLOCK-----

-----BEGIN PGP PUBLIC KEY BLOCK-----

xsFNBGiIh7sBEADZtItMp3ECke3wanwQVDqM7MIiLHm5lXSze7V2RpklOjP0
4OBBTKbesDK2651JR4w5eqta80BjhnU5Jn2gAsvS7yie8EXc30Th+gYAsaGd
sJMIlqnQD9RRbelcJ3GEqx39bimc3Wy8OluC21O6UQ42PEgzd5FfNv2tYHn0
68WJYoElCjcCHO5JLTmwBKpK4akd2+q7+GhS6foQ2SfcBFnEy4J4GuMh17cI
lNE+yyKpE2eQ2PAV/XK1LxKybvhGKuRRgIQo29Yo+ZNIe6ThS5XSitrgAk+O
BhxqMJL0aSV9m0UONmwptpxIgoJeVHDJ69+Vmo5f5hq9XkoHjF6EoOQj+nih
tKdmnrvgaVNtBk4R5F85/gjYfUyeCVpntd4/N5zsiw4ZEN4iKSSvdGeTcoVo
lB4JA5rmcAfS5sICguColo/JJyEbjwu1WwYT3OXTG0fgzdEBIddmNhPX/as4
0vt1vLkXXO9d6D65AG9VbEineZ9DKc7bIpI1rUzr6KXiIA0eb2Y2oOSyVKo8
isINPsIcWpGE0nhJQM3M5xhbq7LXqP80NJygTrWPF5wHcyzf5Gw6Ptfm7mYi
Svc3VBbXP0zVpZQZgrfgylkH2uelDBw9BcoQM6oZN85hfOu1+5Lfr9+r+xac
d8auIK62CR7P64rBh93vHUlnZVK0QpfEY7eN/QARAQABzUNCcmF2ZSBMaW51
eCBSZWxlYXNlIChCcmF2ZSBMaW51eCBSZWxlYXNlKSA8bGludXgtcmVsZWFz
ZUBicmF2ZS5jb20+wsHABBMBCABqAhsDBQkSzAMABQsJCAcCAiICBhUKCQgL
AgQWAgMBAh4HAheAFiEEsqPco1DmclZ0DfkE3k7Ge+Sw3KAFAmiIh8AoFIAA
AAAADwAQbGFiZWxAYnJhdmUuY29tbGludXhfcmVsZWFzZV92MgAKCRDeTsZ7
5LDcoN48D/47TkfnxqmyQ/czOK+lXfMpg8y2hZ/tooYlWAeTuSvx+rwMAp5i
UL0wXxAGynjEU2OBA8KAtdD/ALZSk87R9e8d8d0JMnXuZP0l9zOfyvaCS1Cq
kFWtFV72oSsFet+hJYdGHAnLruMD9AgqHAE9ytm8rm48uppyXY4hhVJqQGWj
Gbd8VQLU4AM1mzojK3M/xVCDXgJ5WN5cyrb8A8nxpdaU0U7zuYhmqrmfg+bA
hghq07q+T1sF+kNJr/sKRLUomWr7Q8TYmuWgoLY8CiTu6uKcTEfDaopdZvWL
82Qn1eoiGAAb73Zztt9ckKtsUM+Ph2tJ0HBEKjK06TbjEoOd+LsD9jp9mQ27
pSLIIGZ+r3I9AMg9WRjclHlUT97OqwVu+2LRu5t/jvYJeUOmBH0fq9Co6VeN
oHAWnkt1xpBhKWvamhUWTuAGdjWhhs+pcEIBpySuxtwCpAvmrPEylygBnng9
5pj43GKI1yAkPpsB9YwnZwEfQ4rTXp6Sm8FaSINrnO3JRt9vbpbUSYAj3VCG
Ekdfb1p8zt+ARVB7UJ90/ZnhPBdHPMa2aeOI4gMqFIIKVNCc69r5IevM7eHd
2pc2N01eR3JsWEkZLQXS+PTCmP/34rpcF45wsidbrmdktfo7KacwszjHBfKr
4us/8epykbRQuVgamiiUQxXFTKl9as07JA==
=IumQ
-----END PGP PUBLIC KEY BLOCK-----
