-----BEGIN PGP PUBLIC KEY BLOCK-----

xsFNBGid3ToBEADg6GXDG8jy1QTlAH3fN2uDuENyKFDaLfmpk+/zvfnoqbA8
HdovktADOeR+LFcB5SIUGR/WdK+oN71Bdk4JpWp3w2L/wdUg6dSIM3gserVT
MItMygrkkpZ2Yhyo47vAZ+ctDirXtBQlklLgzqzIW41XXJF+IGJOuTZpqg75
sxr/IZ4QYV6MJorj6clALGrOtNlwxYp6Nth+iqSy7XKEpUf/NB4bS7zSXLBS
9y36FPOnvn/lqV52H23GkiNhGj5W4+UXpeBs/F/W5GAOUYgcBU4LTUURgGuw
1OkI7bAkBpXueAA1Z2S6Vz8QdppP3I2mI+jalUAUPQPBN0Cc0UXrxA0XyQ9B
36B+3pSq/JhZLNyrS3hdxKA1JwABVXPMq91FOnjVwDFPyxS6Gc6+ZtJ3AlWy
1rL5XIKkRWcH3cQtl83B4ZLQcxtVI4Of/aOjEleAHdopa5YBZb+O+0fE084X
rKrAkfx7GodY+p2bQZjLCddOgb6ItRRnzF9Av84ApTO2y0GqbLXpReQ5Or1h
oQRyhie2xUHRw51/lGe61T/Bns5cy8BDVbrPU0fLpmBF/jHx1iDX2py5Pt2E
yTg7zmJpbUST0st197puHWF8187wgIyg/O6CO4cqnWhIPMJkAbd8Uu04lmGQ
AUc5mohq5iLr2r+G4y4jycu3XxMiEWiMdWjv/wARAQABzaZodHRwczovL3Bh
Y2thZ2VjbG91ZC5pby8wMTk4MTU4MC1lZDNhLTRlZWItOTVkNy0zNTI0MjFl
MjIzZTkvMDE5OGE4YTgtMjJlNC03ODIwLTgwYmMtY2FmZjA2ZGQ5ZTZjICho
dHRwczovL3BhY2thZ2VjbG91ZC5pby9kb2NzI2dwZ19zaWduaW5nKSA8c3Vw
cG9ydEBwYWNrYWdlY2xvdWQuaW8+wsGOBBMBCgA4FiEE3feMPm67LSzCI8lc
YrqJ0HaY28YFAmid3ToCGy8FCwkIBwIGFQoJCAsCBBYCAwECHgECF4AACgkQ
YrqJ0HaY28ZLrw/+MHma7N08Uw1qCBHXOz07gzPSLJCa161p7Picsh5pm7cE
UhhmiPzccNRZMnRLYQCp/8a51YNk+Czd6ABYIkr70nUTUdTxL9R3QCKXPBkr
N5132KcG/UIZ+dunOcMCSPWz0ED626Vogd1qNkvMHpT6ASiYbjoO6sJrB7qc
0vYQUTfBKKLhpMsal7SYlh1/X9zmFrBdFArJysqU4g4hPUhN01IF8QtFvCW9
AwS8tkVlx36/2qj6W3at4CRFvUnmO59m8RuM2rj63fnDL3yzj8lZ0DCkN22i
o5JBPTAw66/1Zl1KTbahB+/Xa7F06Yoil/9l4FZOastQLe0JxK25+Kxpey+h
56F34lMgjpiRaPEl37NlWSFCzM8kSoUEqOf4167ubfSYxLg0YjmZ7AUoFiWE
FlYa/obv86yDpG2dDkwrb4mojLTXjaITccvPEGTgLviEq40G6xENElEWBuYO
/XCxNjMpq9eXYfblbPRzqPpPasRR/1RchlfJDRk1RPPOOjkmbmZHtYgSq9/3
/mGrVvkyB4N/TJopShkEFnlHAl+886bveM5gOJ4ajyjGeNjaTuHvIa7oF4nw
BxdPKHLevCzYlLp7HxYrKSmhXV3h2fWeGApfcyHAyeBvDV3Lprjfh38GF21c
UmwCCGtmsJHmb4yJHs+z+EZn0h03XVSSFSJdV7LOwU0EaJ3dOgEQAM652m7S
6Q+2TtIeC7degPcOdnXfuptcKuw+baKspwK6Jn0mECM841g9fCYB4QSwWjFK
ufU9JXdFPLvRx88Ya4X8COOnRbKBQLRpfNEg7C74McrFrsl//Ep7TDsicqoF
NmqPotykPedXfwtvhv3UqdgKxrh1zoUv+dPraJSRbEmn0E5eVdnJkHC/vhWj
MjJ8AoYFcF/qsnDJm+vtvM9Ak1wAXQR1UXEvqcIhhYI2yEJK2aLwtpUZQXkL
GnhyLoh4D2hvDKCYMcMll8Z7FVu2h6wbX/pVg81lZ59yX9fpSXT4y6psYrBI
VdTt+HDzPyHfjvgpp3Ti6vUWE5Yx26LBMm0KjsinnzpX5Kk7jKrocrFTcwFL
E8ivD46NYaSRJspdvQ5gARFdsQYSrroNyxnWNoSoYN4s7VlpSvJEgAOGCUh6
nLwbFua8wHYz45x6vUemgTNk2GN2y5bthqwsb89aKaA9nNu2TzhzGTRCbXyR
qwlirh+5Qk+26L0hYnvCOROgwDfHWKRB3WiZovAlrgJLiEQKOkOM2IWYBd5D
iIi16xNOE361odZJ1thnDhcpsjZ9KHhc0CjAEWV41jmcc2mP/q9OxJrPRlOE
JjUIMS3qMfjFsiED1xX/mdt0spQAtD/IfJQGDXjGm1LcTUyCwg0BEzHjx1e2
GKJcPyozPzT/oOjNABEBAAHCw6wEGAEKACAWIQTd94w+brstLMIjyVxiuonQ
dpjbxgUCaJ3dOgIbLgJACRBiuonQdpjbxsF0IAQZAQoAHRYhBK7PAaxY7LBR
f0RFVEsZa+nEMT0GBQJond06AAoJEEsZa+nEMT0Gi8UQAINV9l3ljWNXlAm9
/wECLRRJ2OqgkWhIzIoe3zv8Wmi5B98vSyOJhWCm5UMPFw0TSZFfjaZLfaN6
6So1HZYrG9eCbV4Du3VTqAAh6LUO8ymMf/lmT11frhdZKCrBlhzYsHs6C4UO
G0FhT5OcghSqpqI7aCpQT0KYzcdf0N5Uwrhq9PCedm8ttCgYo+G2tMsS9xcG
iZof7Pmm+meVO5RmhKZqPTTXuypT7Pei0yo2NGdxTLeNQiGkP8yvnJvS2nS7
z0XB1+Tyqg4GoytyUrTLlID3bmOB5DfliPfgUAtq2DzWdmAYdv/RRc3Pb6D5
eE4BJ9DEY5iQpBw17OOzvt+MJkUPqjX+lKmZZCUjl0ZCEabMLK6Wltcw4HDD
4oGG6nRrUdm1GFlGVUvBTkfBYJ2oToPxV4O/bRsxSSsldpIEJJnKEEGZW0yH
ZFuGut0angT6xmhsY/7MaJuKbMyHbREeD2lmUiCkQXqC5dFaW5SfMJNiXKjB
QB4bg9BAHjWscowStIuOMEIHD18GtzrtW5BuzPgyZ615mqxQGTvFLSBH1SUe
NcvwmmFt+Nnfvvw2HCCvlFTFS9ngr6oAU8GOuAtZKu/sPrEd8f5vhe8PXKr4
257Rg9wmPwDMVHpEnR63XOfw5chTvPw34ZdSQy1YiIyHUEMDOAjxjDdNcIFG
mOjFhWaOE48P/i3AJoXHgVtTHa9QxU7HmudCG8LeMhcuA/AXod4aRgwUZPD1
C+i4tMzo4UiTy5A78VX7a3dl0B8O5BP2jbip1Xm/JPp44Voctk1gzGEyzL1j
Yr4NlzqKScq/lq39nfRTT4758OnTg/4sHJdc/iE4//HnRd3+7mHvGPj6sEe9
srbNX1sqdYRiFzVj9HHVCiz0N5E4/oe3Fnf44g8Ql6aGPdl9MPlCvO4SmZzD
vROMkwYpwMAJFnx1QClaX9SFpK4EeONJJwsCgH6erKwKtt1UaEgK6zaby3vm
RVP6bcIPI89O+IXr+62jVxhcGX8LcOfQ/MyGTJUHT3m3PUzkbpe5dTS4hrA2
SPjJDf2rqt4K43SAU8nw5buLb+AUCiCX5/pADH9vkzIy3ZvKbaHFmqeX/whX
GbYKOtbPO3UVjZ/Z6wohOs+wSZOV9l+RGpE/QILVwCnlq/USmom8aTAZUDHq
DUr7Dx7GckmlNJqoTiuq90OCw3HJ8tCvBqFF9o3dYbquofYHQopdx5jeYn92
fsyNbv2dIw9mrCmb+F68VWY7Xw5U4mLXKDQx2ieJqtanTpdHiwjuDWXP77xE
I1IeABK9DVZ0766WF3Ezm3BI8H8mUpfzzxFEliTbjL7NpWc79YUe7svNAZYq
0BiOENqhTLbMMQq5BcfMm+uPYV5ng25JYjPu
=xD/X
-----END PGP PUBLIC KEY BLOCK-----
