-----BEGIN PGP PUBLIC KEY BLOCK-----

xsFNBGGbfsABEAC+01IxYaykEHIBW4dom/YipkmjPGbkU/oDibqsHE8VgDLC
10XtGlto0H9q1fsTIi1nZ9S4lWUuuEAFgcPBt82qnT3E11ZCDC5khjFvPb7d
0iK5Wg5Ta1hHNLxuqvRn4sOCyMp7LZJkgLFavvGnXWsHOmB3TzQRaQouc+Y2
1hqANXFCZXCDbe3Wbdy86ZHOezoWEdHaU1868ZlCPMq10lpBFcLzvdeEfMDA
YhOE43c5X0tSbxNo//kingPLPQ7nxbgsGDKNIsghazmKyMaJA+qpzMmu8qo1
ioPZfW8GcYC06cBBAklQ2dQmGqNvpdJeItBeis9kfJvfkWYCbQ5+ebmm/uJD
GCXosIf3/OliMykJhiJzILp51AJqCBD6muL5aP7UorGtVrCQeW2DKB6vtw73
qoWmIAmMdW80Nr2lkFu8sDM8VeCIYUULVa2mkuAet8B3TEtFs6dRZZZNlw6f
Nny6gmN1dbh+aDebilkHn7eOm8A3qUO3PgYNP8swIuGBDQ37lEKZaN6glL7+
h0TY9Pz0UsBlCOOh0f3jrjVR2eseQfMtm5TU/cqY7/+eTzycRpHRHl+xiSiU
T1XwyzCf0sAEuMX6d1Um0KFXWWHYdpe4/P4yQmLwEx3JaYQHM7EBbLsj9vK7
J9qAnrtH0kdyz1RBVE1SV0APS7qNec2GBUXh5QARAQABzTpDbGlja0hvdXNl
IEluYy4gUmVwb3NpdG9yaWVzIEtleSA8cGFja2FnZXNAY2xpY2tob3VzZS5j
b20+wsGOBBMBCAA4FiEEOp6hGTqXtUi+FFfUiRn2vStI11QFAmGbfsACGwMF
CwkIBwIGFQoJCAsCBBYCAwECHgECF4AACgkQiRn2vStI11R0OA/9GHe5Gfco
4zWrPSX1cCM1sZZeLZUXeRu4iJlJPahi1sjP2J0rcuv5Xp7paW23el0ksXf4
P+xknzzp8SlCndQKFWsb404vsNK5VtPB1RJ0Sje0dFM2nO1/Kt8pVX+r1WFJ
1gurBSugsAs3erTCy/ZIB6nhRcFBGsJfvZV24bVxFQKUW6ARigia3bqOZlM4
ksdvjrLLHZ84WiLY++W3wTMIh34KzLClVokl4au8L9Z1g+24EqJMRV7722FV
m3GZDdVhmzNygKXQvopFvrfQY8Uk9ApZOVSsx9zH65UDP0u13ki7UTlyCi9u
cGgT4w6cek1DUcXNW0FU8498J80fADcWG4bsPjiJ7WiKI29saVked4gfUqx0
G5kUCP+l5oo+okm/BFrt66sO0cEbG9KZCmgdTa2KoNUtsampIBXDG0+9c2SW
p3pa1j5sErngR2dyV6L8MuxxdQJbVR4RxXkM8LkAUMN+YAatknMKEPa7gXal
t73fiuvFXpY7NOxeUmlrRXucnCY8vSnTNPcuQYAeNyg7z2gyrpqp81Kd+XKU
IdKYuydPpvRHzhFOBIf68NUc3MR1UeZxeBF+bnVkkyL5nRhU+1eLZ0YyW2/P
BCmegUahCHEWLpXGzeNBwdnt3HrJEQg54Fu8VPcKFa15kJ8QghTlMwYSQkXU
PZeBOYaHtva+aSrCwHMEEAEIAB0WIQSdgk/zlCIKKzIjZgsAGciEq/hW0AUC
YeaqyAAKCRAAGciEq/hW0CKVB/42Pla8EDBNTrki3CsVhycpjrEDKnsxQgkN
+DowtZPgRdYRaiQcIgk/xEgsud0RdMV16LYiHhj7YLvuTFayH/QLhppatmQc
EzyCZEvodklP8qX8fwls8QX9dOBDjfzfReV0ESrAs8SFcmFlLarb/9LBX9iz
D0ouQqxdkkRnGS68SOu8WCwxffrJjI9qqdAsx5KWqqjuoRWkDIAQXOqXsPyn
aqFFG6Pqhj99MT/+p+TxUhcPtqysII/2TdXm5yE0cnkX5xcog9bLi6Lp5G0+
2hv/sLxrtdrobtuZMNetfyb/g7zclTWbAzGAxPm/Y5kFqgqUgztsZRV4n80S
OcM6G4OozsFNBGGbfsABEADXZ0mAMCsf7Y2yJ2aSBLCVPUEZESeB+kDAciks
AguHeMVp7owI2mfAfw4Z8TEQE6aOb+cqbDbqneQ6nuaRxMNvlDhhtrKztt+U
xWrvgPMvJ59/O1ujY7+VZ+3lXJ01r0u5Xdk1zUZ1uYYl8+Lt3/WmJmmlosX2
2EwQdsAvuRuOmuM2jPTMVN81TaZ2R0Om5vT2L8/SQY7csxc5OylBLskuDQmU
1PNlkwTltCMqHl7g08LPADLGi/3C9I/0P92A+jZ9RgDCI8BIOS5Ny7CStT96
dqrje6TLbWRxIWBjn1xsVUTxYQY4FXYfw1p7Rm5kzZGImzI4Z7wNcVHCty+X
9La+7yKwABW2BeTqP0rCXpKmy4nNOgwTDVRaA5CL8mg2doK8HOoa03SgziPG
EeHHFyS7I2DJAEw+h9K8jXVy9Tgd7ZSXmO4Z99ovdHksX4fmD7iOWU2WRp3b
2yhpO8b/TgU2r9AQaNMAOsudN+0Q9NGkEYhWRdWsGapJpa3Q+v1s88lodPhj
cIkqGUCH82T/+MhTDdotssj8a6ueg3mcwVD38690j8ngoBCPmLCNtgZDqhtf
y+905uO3ksonF/X2lFc/YG7sqBiOHoDKyN347pPyK8KbukiMoOasDIQUsryB
UeAM0M0Xzftc66BaPgH75KTPZqkOO8aTBCRxl/AHTejV5wARAQABwsF2BBgB
CAAgFiEEOp6hGTqXtUi+FFfUiRn2vStI11QFAmGbfsACGwwACgkQiRn2vStI
11RimQ//a0dHoSekuMLDPEYpQYEEr5JYYWFdFPA/ixeMHZ566ankWMqKHynh
bqqRXVhqKd0pveV+ALhgrUU1nBB9Ma5P51VNEGC0rThiLBVkCTrV0UrUXxxg
A5cTJBVZe7yyysqdCHcuuNNrlQbuzhkJWBySgeWrbmd4VUbDdL0iGMFSAtbr
YjSWreBDBgWBYd8uRiPHtc6ACBIhzGGOulw0k4NnMXHDJyCwEv7EAxESY/V8
kLK3p7DXc6tpmd1vZ38X52CnVRM6aLQl6YWKXhA+vp9cPJehfEbK+ZPErbCB
4jF6AC4BFwntE0YSod6TVM+wJBuPplnWr4nUUhsk/FeulWGF+AhUG2XJiIn9
0ZHIcxlct8Nt1zBgoquxWYmqt/z+s7TOBXnvotOMJggjgsPozFlHjoy47Xc1
4VwzxnU+NknXYqDAsTfjgXiw7NRQdJ8BUd4TSf8iINf2uCNzp4QDJ37VfN7/
BiaXBGjEEN+kOKpxkse6qm06GFd+bXGSHh6H7z2d973k2QIfW03opWAwS+Ad
H8xmUUaAyyhEql5mlXZVkQRS8rEO4IV5HQV8FD5iV9bdNihaydlKP09/D9ZD
lie0dJZXOIHQDuwDt4Ab3reSs1T5utClQE0FS8ZZjPuitq/l+TsT83TASVyn
vEmwvNiEbpOsNjvB1u++w4niqCHQv3bOwU0EYyw+bgEQAOECkzewc6GdlGA6
5PIqEPL4JORnsYr0fHNHYGJ+WCHC9HuQEcFJ8Q0R7nSNbMmi6KjnTqM4QdkL
myEQs9TKK5brFBa/ObbL4JVyBJTi4LdlCg95YfEQKTClb7roaLwKH+TykBJ6
17R+QUvFp65YCwzNiS2aKu6AC6zsD2rsrJulq5LIDKvWwLWfFtwRwOHMgviu
Glj/97omXUhuPIScJ5rB+QzICaiKriF/qVVO7obTV0OcUYrTOkNKo8H/q/fw
0FSvX3eznz6fK46gi468P34VO5ZLZs4UQih7EzDqdGz4Lo8GnIrtThWH5rLy
Fhm7PdB6yLwf8bQeqDviI73Zb0w9ookYJQpBdglnDyLdhVjoAA0Hp3Q5XL6y
vZVZz06YL3k1VWHI2H/AWeceTFlrExmF2u1KousrwD8/583T042oRcGW97YV
5Q9Uw7iffKvJiLp5VBZa319FsvF9hxM8bZVgVqBksBI/ScIvzMgG5FHeGflJ
2xEIWWv2uDiAs498kmm5wI6HdcfsYuTT+uPsKSNd5G+Ts/39+hirXhVygtx6
pFeCRVTdrfWcOfVIVilZm7I+qDNrap2w6dT23zJT1DvZFCXymU9dxPEoLOm7
cn9oxkvjs6c/YOIeyU5CSdI5ZdO99G/8TbFwLKdSTajkRTVfIa99j/8P0jPM
etnk7PoHABEBAAHCw6wEGAEIACAWIQQ6nqEZOpe1SL4UV9SJGfa9K0jXVAUC
Yyw+bgIbAgJACRCJGfa9K0jXVMF0IAQZAQgAHRYhBIheK9z5awtFq/BYRT5K
1HGd3po4BQJjLD5uAAoJED5K1HGd3po4CjIQALM1EjN2zCtQip9m5IuPnHA6
d/YFIuNAXjAnZcg6HQSi+ERFu1w3mL2ya+ll3EYOhFMVMEnja0h0e+ezt+WM
Jt1R2eH1PMZEeJ2uMXgIOl0QsTUXWemhweTQEmsgqksQMqsvFuogxNP/Co+c
KJCiBpMIU9FJfLrSoGGidnUqr48QjGRVx69FPPthlNOj6/KkhksmJFTT7YhM
G8V7K8yxiYIcQQvRfINLZfmXF2cvGlZU21Il43nCmNb4iFUnrUOouQ7k/Oe/
OzZqggmcfPGp+6GoSJB3exr3NonjuEhmYR1VPe+WcgsWSl5RWVEaasN5C7dc
ekqWsqlAUHpvIqDfzaL3s4HBp19uxxdiy42wXotDhT02P7DJVjVJf9XWgQbm
aanzLdPnrUxwUYcLEQM17VJ37j9DyW9zPBB/pKLRwDr89xpmAKMtRzeXImnB
uUJHctp/c9dFvbhJGgxFgLHhBCUdTsEs7phLAB32n+oP2Mas6yRgG98k46ic
+ZNdJIzplfXT96n/5u+aeyQOkY3rZh6Jbhzwpb+r5Tj1rAXIJta6prkd8d3+
1Rg37x9HkEAHn3ZPDk1RwbVOVCU0UjMOPU/6Y3FsQq30jSuNhr70p5H/okwp
kS7YX/7lY0068XEpWoIyJQIHcBM0HZCV904mwdqfRDujziIoQ/xEm3+zIVtz
dgYP/3kX4kUup2DEUEY5ND3oKc5CAjyFUGU7thzILHtt76WrrwXqqfxjJKl9
+acmLlrBLj5FQwFEhThEeWunm2T5hhgr4FfF4MXneQqVRhUslm5+sRIm/K1y
e5q4NLfgiwZD/nTM5defyI4cynrby4fy1R9SCBLolzvPLpvEraegxIQ3Hk1k
T5HmnXi79hZVbZxIkt6wNPG1rTS0TaJ2M37nmhm4GcNjDtKnhy4Aq569DO8S
d0U6bYKIaFFoi7X5KYnKWY37pYFl0ERU0ffQp7Mg9ruHRvHhkA41iQ5kF/O1
fJHRUfXcYnfIfvN1C77TdXLQryrA/bRNS2dlulIu4CYH+lsfhlIjBQrRoEOW
Gu6PzKBwPIXKcVFfB4BcG5si/3vZD3Q1xfUj3MV2sQcgVNbd/t7jJda3uhX9
DiEPyqdgl382Rq+LoPV4az1igDLDUe7yPrCpD1rwJMyKJyStiP4i1jiIejVa
vPiCpXH1oxCQeR8KqjdrdNbSVgDOapPauZEcwJL464ZlWkdxKX09sN6GaXFT
HYTEXkxrzhlYZaysWEO86+iBUcHnRtc1D3dMJg7hi/Du1IouTwnBsYIwd9Fz
/wHpDkiu0Z3gCmYEg4JQj4iwAtNOQfhJzhEH4kHLom8j8XI/TlgJe/vtNUUU
Dp3i8qczTjuaVywRbE3+9xjjsSiI
=JDBx
-----END PGP PUBLIC KEY BLOCK-----
