-----BEGIN PGP PUBLIC KEY BLOCK-----

xsFNBFb8EKsBEADwGmleOSVThrbCyCVUdCreMTKpmD5p5aPz/0jc66050MAb
71HvTVcfuMqHYO8O66qXLpEdqZpuk4D+rw1oKyC+d8uPD2PSHRqBXnR0Qf+L
VTZvtO923R7pYnC2x6V6iVGpKQYFP8cwh2B1qgIa+9y/N8cQIqfD+0ghyiUj
jTYek3YFBnqaL/2h2V0Mt0DkBrDK80LqEY10PAFDfJjINAW9XNHZzi2KqUx5
w1z8rItokXV6fYE5ItyGMR6WVajJg5D4VCiZd0ymuQP2bGkrRbl6FH5vofVS
kahKMJeHs2lbvMvNyS3cn8vxoBvbbcwSAV1gvB1uzXXxv0kdkFZjhU1Tss4+
Dak8qeEmIrC5qYycLxIdVEhTZ8N8+P7Dll+QGOZKu9+OzhQ+byzpLFhUHKys
53eXo/HrfWtw3DdP21yyb5P3QcgFscxfZHzZtFNUL6XaVnauZM2lqquUW+lM
NdKKGCBJ6co4QxjocsxfISyarcFj6ZR05Hf6VU3Y7AyuFZdL0SQWPv9BSu/s
wBOimrSiiVHbtE49Nx1x/d1wn1peYl07WRUvC10eF36ZoqEuSGmDz59mWlwB
3daIYAsAAiBwgcmN7aSB8XD4ZPUVSEZvwSm/IwuSRkpde+kIhTLjyv5bRGqU
2P/Mi56dB4VFmMJaF26CiRXatxhXOAIAF9dXCwARAQABzS1NYXJpYURCIFNp
Z25pbmcgS2V5IDxzaWduaW5nLWtleUBtYXJpYWRiLm9yZz7CwXgEEwEIACIF
Alb8EKsCGwMGCwkIBwMCBhUIAgkKCwQWAgMBAh4BAheAAAoJEPFlbyTHTNHY
JZ0P/2Z2RURRkSTHLKZ/GqSvPReReeB7AI+ZrDapkpG/26xp1Yw1isCOy99p
vQ7hjTFhdZQ7xSRUiT/e27wJxR7s4G/ck5VOVjuJzGnByNLmwMjdN1ONIO9P
hQAs2iF3uoIbVTxzXof2F8C0WSbKgEWbtqlCWlaapDpN8jKAWdsQsNMdXcdp
J2osWiacQRxLREBGjVRkAiqdjYkegQ4BZ0GtPULKjZWCUNkaat51b7O7V19n
Sy/T7MM7n+kqYQLMIHCF8LGd3QQsNppRnolWVRzXMdtR2+9iI21qv6gtHcMi
Ag6QcKA7halLkCdIS2nWR8g7nZeZjq5XhckeNGrGX/3w/m/lwczYjMUer+qs
2ww5expZJ7qhtStalE3EtL/l7zE4RlknqwDZ0IXtxCNPu2UovCzZmdZm8UWf
MSKk/3VgL8HgzYRr8fo0yj0XkckJ7snXvuhoviW2tjm46PyHPWRKgW4iEzUr
B+hiXpy3ikt4rLRg/iMqKjyfmvcE/VdmFVtsfbfRVvlaWiIWCndRTVBkAaTu
8DwrGyugQsbjEcK+4E25/SaKIJIwqfxpyBVhru21ypgEMAw1Y8KC7KntB7jz
pFotE4wpv1jZKUZuy71ofr7g3/2O+7nWLrR1mncbuT6yXo316r56dfKzOxQJ
BnYFwTjXfa65yBArjQBUCPNYOKr0wkYEEhEIAAYFAlb8JFYACgkQy8sIKhu5
Q9snYACgh3id41CYTHELOQ/ymj4tiuFt1lcAn3JU9wH3pihM9ISvoeuGnwwH
hcKnwsFcBBIBCAAGBQJW/CSEAAoJEJFxGJmV5Fqe11cP/A3QhvqleuRaXoS5
apIY3lrDL79Wo0bkydM3u2Ft9EqVVG5zZvlmWaXbw5wkPhza7YUjrD7ylaE7
54lHI48jJp3KY7RosClY/Kuk56GJI/SoMKx4v518pAboZ4hjY9MYgmiAuZEY
x5Ibv1pj0+hkzRI78+f6+d5QTQ6y/35ZjSSJcBgCMAr/JRsmOkHu6cY6qOpq
4g8mvRAX5ivRm4UxE2gnxZyd2LjY2/S2kCZvHWVaZuiTD0EU1jYPoOo6fhc8
zjs5FWS56C1vp7aFOGBvsH3lwYAYi1K2S+/B4nqpitYJz/T0zFzzyYe7ZG77
DXKD/XajD22IzRGKjoeVPFBx+2V0YCCpWZkqkfZ2Dt3QVW//QIpVsOJnmaqo
lDg1sxoaBEYBtCtovU0wh1pXWwfn7IgjIkPNl0AU8mW8Ll91WF+Lss/oMrUJ
MKVDenTJ6/ZO06c+JFlP7dS3YGMsifwgy5abA4Xy4GWpAsyEM68mqsJUc7ZA
NZcQAKr6+DryzSfIOlsn3kJzOtb/c3JhVmblEO6XzdfZJK/axPOp3mF1oEBo
J56fGwO2usgVwQDyLt3JiluJrCvMSBL9KtBZWrTZH5t3rTMN0NUALy4Etd6Y
8V94i8c5NixMDyjRU7aKJAAwtUvxLd12dqtaXsuvGyzLbR4EDT/Q5DfLC1DZ
WpgtUtCVwsFcBBIBCAAGBQJW/CS2AAoJEEHdwLQNpW8iMUoP/AjFKyZ+inQT
I2jJJBBtrLjxaxZSG5ggCovowWn8NWv6bQBm2VurYVKhvY1xUyxoLY8KN+Mv
oeTdpB3u7z+M6x+CdfoTGqWQ2yapOC0eEJBFO+GFho2WE0msiO0IaVJrzdFT
PE0EYR2BHziLu0DDSZADe1WYEqkkrZsCNgi6EMngmX2h+DK2GlC3W2tY9sc6
3DsgzjcMBO9uYmpHj6nizsIrETqouVNUCLT0t8iETa25Mehq/I92I70Qfebv
7R4eMrs+tWXKyPU0OjV+8b8saZsv1xn98UkeXwYx4JI04OTwnBeJG8yPrGDB
O5iucmtaCvwGQ3c76qBivrA8eFz3azRxQYWWiFrkElTg+C/E83JQWgqPvPZk
I5UHvBwBqcoIXG15AJoXA/ZWIB8nPKWKaV5KDnY3DBuA4rh5Mhy3xwcC/22E
/CmZMXjUUvDnlPgXCYAYU0FBbGk7JpSYawtNfdAN2XBRPq5sDKLLxftx7D8u
ESJXXAlPxoRh7x1ArdGM+EowlJJ0xpINBaT0Z/Hk0jxNIFEak796/WeGqewd
OIkidAs4tppUfzosla5K+qXfWwmhcKmpwA4oynE8wIaoXptoi8+rxaw4N6wA
XlSrVxeCVTnb7+UY/BT2Wx6IQ10C9jrsj6XIffMvngIinCD9Czvadmr7BEIx
Kt1LP+gGA8ZgwsFcBBIBCgAGBQJYE6oDAAoJEL7YRJ/O6NqIJ24P+QFNa2O+
Q1rLKrQiuPw4Q73o7/blUpFNudZfeCDpDbUgJ01u1RHnWOyLcyknartAosFD
JIpgcXY5I8jsBIO5IZPRC/UKxZB3RYOhj49bySD9RNapHyq+Y56j9JUoz6tk
KFBd+6g85Ej8d924xM1UnRCS9cfI9W0fSunbCi2CXLbXFF7V+m3Ou1SVYGIA
xpMn4RXyYfuqeB5wROR2GA5Ef6T3S5byh1dRSEgnrBToENtp5n7Jwsc9pDof
jtaUkO854l45IqFarGjCHZwtNRKd2lcKFMnd1jS0nfGkUbn3qNJam1qaGWx4
gXaT845VsYYVTbxtkKi+qPUIoOyYx4NEm6fCZywH72oP+fmUT/fbfSHa5j13
7dRqokkR6RFjnEMBl6WHwgqqUqeIT6t9uV6WWzX9lNroZFAFL/de7H31iIRu
Zcm38DUZOfjVf9glweu4yFvuJ7cQtyQydFQJV4LGDT/C8e9TWrV1/gWMyMGQ
lZsRWa+h+FfFUccQtfSdXpvSxtXfop+fVQmJgUUl92jh4K9jc9a6rIp5v1Q1
yEgs2iS50/V/NMSmEcE1XMOxFt9fX9T+XmKAWZ8L25lpILsHT3mBVWrpHdba
wUaiBp9elxhn6tFiTFR7qA7dlUyWrI+MMlINwSZ2AAXvmA2IajH/UIlhxotx
mSNiZYIQ6UbD3fk4wsFzBBABCgAdFiEEmy/52H2krRdju+d2+GQcuhDvLUgF
Ally44wACgkQ+GQcuhDvLUgkjQ//c3mBxfJm6yLAJD4s4OgsPv4pcp/EKmPc
dztmW0/glwopUZmq9oNo3VMMCGtusrQgpACzfUlesu9NWlPCB3olZkeGugyg
o0zuQBKs55eG7bPzMLyfSqLKyogYocaGc4lpf4lbvlvxy37YGVrGpwT9i8t2
REtM6iPKDcMMsgVtNlqFdq3Fs2Haqt0m1EksX6/GSIrjK4LZEcPklrGPvUS3
S+qkwuaGE/jXxncE4jFQR9SYH6AHr6Vkt1CG9Dgpr+Ph0I9n0JRknBYoUZ1q
51WdF946NplXkCskdzWGRHgMUCz3ZehF1FzpKgfO9Zd0YZsmivV/g6frUw/T
ayP9gxKPt7z2Lsxzyh8X7cg6TAvdG9JbG0PyPJT1TZ8qpjP/PtqPclHsHQQI
bGSDFWzRM5znhS+5sgyw8FWInjw8JjxoOWMa50464EfGeb2jZfwtRimJAJLW
Ef/JnvO779nXf5YbvUZgfXaX7k/cvCVkU8M7oC7x8o6F0P2Lh6FgonklKEeI
RtZBUNZ0Lk9OShVqlU9/v16MHq/Eyu/Mbs0Den3vYgiYxOBR8czD1Wh4vsKi
GfOzQ6oWti/DCURV+iTYhJc7mSWM6STzUFr0nCnFx6W0j/zH6ZgiFAGOyIXW
2DwfjFvYRcBL1RWAEKsiFwYrNV+MDonjKXjpVB1Ra90olLrZXAXCwHMEEgEK
AB0WIQRMRw//78TT3Fl3hlXOGj3V48lPSQUCXAAgOgAKCRDOGj3V48lPSQxA
B/43qoWteVZEiN3JW4FnHg+S60TnHSP69FKV+363XYKDa23pNpv4tiJumo9K
vb4UoDft766/URHm5RKyPtrxy+wqotamrkGJUTtP2a68h7C31VX+pf6iiQKm
xRQz4zmW0pA5X01+AgpvcDH++Fv5NLBpnjqPdTh5b0gvr89E0zMNldNYOZu1
0H/mukrnGlFDu/osBuy+XJtP2MeasazVMLvjKs+hr//E+iLI9DZOwFBK6AX5
gkkIUEHkSeb4//AHwvanUMin9un9+F9iR+qDuDEKxuevYzM0owuoVcK5pAsR
nRQJlnHW/0BQ6FtNGpmljhvUk8a/l3xFf3z/uJG5vVKVzsFNBFb8EKsBEADD
fCMsu2U1CdJhr4xp6z4J89/tMnpCQASC8DQhtZ6bWG/ksyKt2DnDQ050XBEn
g+7epzHWA2UgT0liY05zZmFs1X7QeZr16B7JANq6fnHOdZB0ThS7JEYbProk
MxcqAFLAZJCpZT534GpzW7qHwzjV+d13IziCHdi6+DD5eavYzBqY8QzjlOXb
mIlY7dJUCwXTECUfirc6kH86CS8fXZTke4QYZ55VnrOomB4QGqP371kwBETn
hlhi74+pvi3jW05Z5x1tVMwuugyzzkseZp1VYmJq5SHNFZ/pnAQLE9gUDTb6
UWcPBwQh9Sw+7ahSK74lJKYm3wktyvZhzAxbNyzs1M56yeFP6uFwJTBfNByy
MAa6TGUhNkxlLcYjxKbVmoAnKCVM8t41TlLv/a0ki8iQxqvphVLufksR9IpN
6d3F15j6GeyVtxBEv04iv4vbuKthWytb+gjX4bI8CAo9jGHevmtdiw/SbeKx
2YBM1MF6eua37rFMooOBj4X7VfQCyS+crNsOQn8nJGahYbzUDCCgnX+pqN9i
ZvXisMS79wVyD5DyISFDvT/5jY7IXxPibxr10P/8lfW1d72uxyI2UiZKZpyH
Ct4k47yMq4KQGLGuhxJ6q6O3bi2aXRuz8bLqTBLca9dmx9wZFvRh6jS/SKEg
7eFcY0xbb6RVIv1UwGDYfQARAQABwsFfBBgBCAAJBQJW/BCrAhsMAAoJEPFl
byTHTNHYEBIQAJhFTh1u34Q+5bnfiM2dAdCr6T6w4Y1v9ePiIYdSImeseJS2
yRglpLcMjW0uEA9KXiRtC/Nm/ClnqYJzCKeIaweHqH6dIgJKaXZFt1Uaia7X
9tDDwqALGu97irUrrV1Kh9IkM0J29Vid5amakrdS4mwt2uEISSnCi7pfVoEr
o+S7tYQ9iH6APVIwqWvcaty3cANdwKWfUQZ6a9IQ08xqzaMhMp2VzhVrWkq3
B0j2aRoZR7BNLH2I7Z0giIM8ARjZs99aTRL+SfMEQ3sUxNLb3KWP/n1lSFbr
k4HGzqUBBfczESlNc0970C6znK0H0HD11/3BTkMuPqww+Tzex4dpMQllMEKZ
3wEyd9v6ba+nj/P1FHSEy/VN6IXzd82s1lYOonKTdmXAIROcHnb0QUzwsd/m
hB3jKhEDOV2ZcBTD3yHv8m7C9G9y4hV+7yQlnPlSg3DjBp3SS5r+sOObCIy2
Ad32upoXkilWa9g7GZSuhY9kyKqeEba1lgXXaQykEeqx0pexkWavNnb9JaPr
AZHDjUGcXrREmjEyXyElRoD4CrWXySe46jCuNhVVlkLGo7osefynXa/+PNjQ
jURtx8en7M9A1FkQuRAxE8KIZgZzYxkGl5o5POSFCA4JUoRPDcrl/sI3fuq2
dIOE/BJ2r8dV+LddiR+iukhXRwJXH8RVVEUS
=mCOI
-----END PGP PUBLIC KEY BLOCK-----
