-----BEGIN PGP PUBLIC KEY BLOCK-----

xsFNBFtyz58BEACgKbtY59R0mxs8rWJNAn1BWNXwhuTvELNCV6gZkMRGFP14
tMopd9VcUx5UWiulT5wysji63xhkNljmE90jJdlxZwZ+XtnmLzIqp6i29EkA
IUt1AoxMw2ipMhfuwE6WA6VYxQihu5z2IDOR1PdDUHF5cX/GZgBon/2A33rG
5IKTcaNZzL0Oc3rS5VzOzwnp1FHPlR7PY7BRDNe8q1MrQq14tlgMTaYziNg2
t2YwjuhNV6G33qGEh390aUnO/eMWIPJzKoi4mE5mhEbh4L/7sFlcRUC6Vs1x
a5Ab+L5y2xoDe2grraKDu+XpGJaDPLunlhDSTUsp0HsoLVU4ne/HNbCAm2b2
5tKFcFTUwDH4Ekge1/bQLCvxkB63MMLa/FgsJ0XAr8zKEQFrc89qJU4Juvad
L4hAIqZ1ywFlwTOBaNfZHbW2Pt5fprktIL5d5jIHAdQrFPvLqhhjhM03de6O
6dS5lDeP8dTdqzMcqBkwFMmjZMeRAcoJvs0jJNc0fYwL3h2JSWQnIhsvcSe6
gk8GFVRbCCy9UplK1K/5TWw+y3mtfWwUCUSWnBIuUTV+5iG21o3rdZgfEjXJ
tBAWW/hKoVwBTe5Ir9yIqaomG5ul0Sn2EgOravnsAWe2nk4l9cno5CPhGunE
tiOD8YQJHskk7/NMtnPegB5j4tprXGS/cK/5hQARAQABzTxQYWNrYWdlIE1h
bmFnZXIgKFBhY2thZ2UgU2lnbmluZyBLZXkpIDxwYWNrYWdlc0BwZ2FkbWlu
Lm9yZz7CwY4EEwEKADgWIQToaX4u73bALTpjMneIgbKoIQl28gUCW3LPnwIb
AwULCQgHAgYVCgkICwIEFgIDAQIeAQIXgAAKCRCIgbKoIQl28ukfD/4y3gGy
sVSJU1964mpi/4NtSTruQ+fx8rN1vY/cctdQVr1ltuJsDRyPgGpXIh9zeK0/
bkCreCcuGezm2WOUFR6Kf54zMWWbIrAPpbib7rYi8n50jz7SkCfSyJZgqO2b
APBUMP6Y09mdLaB4jib9Y6nDhFgm2V0rO64yX/bznVjBzNXFjCTgbPoABU0G
uy4yHGUFHkQ7Hdg1QLhupMWlphlMJbeSxZJx0T6ApNvr2Qg+uFykSXbXjP2e
/tXGb9NeHveTtw/hD2yMPzXJZ4uQbk8mJWDfD87fHY4ZUVqLJtKiS3omePJ5
FWMPnLl0PLICkvmhmhoxyKFGjB+62/PpYwclZLR8iB7wn9tIA/q6BqP/BBhg
mzpuh7ZOAU/zUZ5D+tHuQ9X0e29iFs4nxewmSM1uCq++l+gGMFRMn0FPH8ny
QS/EcB/qXXRc0J3Ja7VVfH5BdjmVvqTeJmwY+xGdLZAh/WZ9raWd/qbRGNIc
YOyhHnvp719EQxYSiiJbIQcRLDbcIBiUG322ubSiR4+saYfx4ixrHvx8QYbt
agien0kkXtoouhhIuLxq/EADRb979ZvQ1hnlUkSGHRN6mDNyLztRqy/iibZr
SgX+iKR9lQYI5MnhchihgoN7jyFUiGTV/VSG6oH2KHiTgUQawli9OirnBB1o
ekf2+QZfZUvnM+b+SsLBcwQQAQoAHRYhBODEzuuCax/aT7Ro4CSt+q9pjxUZ
BQJbcs/+AAoJECSt+q9pjxUZ4fAP/iQpwcrUZrPp3WI3hi3wHAe+L6E6LiWl
hMEMlqfy/2/xOpDEniwy6IEbMV7+H8WSbFYnTBM6EJAWPCMKZAfkduuB6xqH
llEuPuFY9O13+fV5bJMrW/ej3MbX2yz+wfa6LLORRBB/e4R34suzmlSzQzRt
tPHejmpNicn0S2kA07kqdl/2I3KcsWM1a5GeRZAukDSMLI6orZAGR+r4xKpd
EiEMHfoxYYxujmQR9+jqYYPsuViHc3LtIwaKMjTiWBx7wUDF+qIl7bNkT7P9
4VudNU9hhzCcYSAt4qiDykTojbSlXSx/ltqoTRhVQlk1kFk2g1O1zHyVpuAk
olje5ZmRGa/ZFQWuSOd01n1QqiRLrQDXHKDBh+sUOqaF4Hby/pwZwcsXGLEz
SI9uC5HeWAn/yomDJInpyYwGmT9FyD9YSd9QjpM1y2/w2+KMj1KRq7GvmZUO
NYaWp1+A0eCLyhdsZ+bqdS6DVnh0qKT/8ulWUKe+sxiRyAaKBF0QacuuRiRF
AfgWbQbsrEQGcDqLq7lmtmOKa0GrBQJAvTMUkxrpMG6SIe+HsJJ3/u+pmTWg
77oiQqTByQPPJF0/EgMVg/JzstHdI+FA7Q/4DKJZ5NrPBpUUQC0h+Iex426C
7gBtnGXQHYB2Nx6xCtwmpPZvw5THrRb07Y59nZEZLEdcL8bbH/CZwrUEEBMK
AB0WIQTfQ6ze1C3RxJ7kcxURI+DKwH2MKQUCXDh3JgAKCRARI+DKwH2MKVJN
Af95BMshvnrGaTDQWmE/1MgipA184svYNtEkYIL5Rx4Blj/tKDUUM/gfSAMx
3KVagzOsZJupfWwo3xzI0h9dFVmNAf972bTvc7IvoDq09w/1u7juNB3zUQjd
6djubRDpJQOt5NoL6mPO/Pl3jK/La09yZIbV+OWRs88bIKc8YAxvwK4qwsFz
BBABCAAdFiEEf2XkVPSzQnkM9xBxD9lN/uM1gfwFAlyb070ACgkQD9lN/uM1
gfzNBRAApGCxO8G2m6397H6J0xSO8tQXgMq5zxkaJIYTQhCissJyczHBrF75
LZUUcmhGA3ak+w7E5Wdi+tbgEeH65d/nonUX/p7Uz7ZJswZicdzvGnuqzxFw
tWHnNJT3nMV29M+KuESQQGrh6Gvl2MxjYx4ZWm4UYiWgPDifPAqqW88o+BsC
SNWomFHzUcN1MuhKjMShxgnS/ZRo38Av7hRFHhgXbsSIzv+TBnS3LeeS5A4j
GFp2YT0qHECfICxVugR5tvQMjAbVmE4Jp0/yv8cMKkIMP9bLOtfzyzNDq+yn
R9twLSKibtXpY6QREqo/1+4J7AvqQwKfcYMPx5xJDx3oWsA4orPvEdTZP8My
waZrh8QgGqoSBX08nsI87UIi7NAmHyYewPCCSnDyHTYxFIqlU0YV3dhlI9Vt
A5roZDPbSWFCqW9M80BQZzXB2Sdgq45d/Xo6tAkPuxs+7+Ueqx/Ykn9xIOLW
Bd8LRKO0VVh/AyBpGjbaCmp4EVad1cEnwn6Ox+X+mzC6bCri4WBY6Kyo0g7j
a10e2URNIg/AYVEAsUSmK9wLMPiG3FYHAD9d2x8nmegAOPB1ru153G8X4P5U
m0wCjeKKriuJSHIrpc9a42opdeB86pPyKE+Z5EibFnWC49TQlNitj9Nf9CFb
qEsw5VJ/HxvJQWOQK6qHDKhXxQPYWK/OwU0EW3LPnwEQAK3Qdxvy3bhlewZw
6VWcSWhwwyjXsh3IO+zWPaMnGs1NPqOTGWDAb6iNK2xG+WVGsbzlar8U0jou
4FjdTH5iZ1o2b6nwImIQMT8aqXgY9I1nt8KKKilHLIVeDrVUzvaVaiQBP2j0
ZpJTT+wzlYN5e8wDlAiUCDr6NDv5HQwwsd4fQZMycXnwoAWYTtPvb4fXM+28
fep5CU6348EwlU2GOI7YzBTs2VQgpXPhWfUmbEDWQJYQjFnIVLzZdcpz0FeA
+rCeTbuWoHF1nMNYWSLxIGcN2/BNP+zRyG3B6RY3i3ZGh8rTDfdMXv4xJAvG
lYuvyKCtBC8GrosF8yqby1BYcvZUM5EODmQoilm/ik3HEgWa7VVf5bTU6PYZ
XoA4mBfqNp0yJGUem2TPsP92aeqwLJ8NEKYtzAHfLb9t6FtXX6JbZtWJRoWh
Ai39debYmjVi2yTFnssOeAOKfzylTqMh3U13GM/aspSOb93IfmMyfV6eC/vX
DXpMf4ZWvjaGj7I7A5NijyooMC9CAjwjx74yWQwtEumCYWIQKZYKi8k5DYke
LOoU6av55Jt6DujlWlYD5xvSwJ1sZRfwq/qLzM/9rKFWdaDWhTlDQdOAf2BD
SvORH5F7Y7nFIq41iepU4m/h5HO3U08WBlk7D48UwmW8TPi6MbAD86x0k0tA
r8cQrvkbABEBAAHCwXYEGAEKACAWIQToaX4u73bALTpjMneIgbKoIQl28gUC
W3LPnwIbDAAKCRCIgbKoIQl28o9SD/9/ZgkYdf0Vo2QKmgSTnVBbmy+mohM7
bgiDrmYRVXLHUY85H0FCcImhdmueES/Z38GmKMUT9xH98e/1uapzjfjBp5k/
IPJ+VZOfr4xBgwkl+zMp0kVppjio95oJyiHsYLarDgjkwg181VNyKc5TnZdn
O3oX4Q2biHy7q9tL7nmwpeNFHE0wdsGU0yvTLKW6R0auzc9MYRi1cQ8GGazg
+XPm4ePCS9/6u2LzjPaqp1frLRhbG1EHLRwZ6jXk1gDyQckshB5RhuRXbQ8L
tSiiPb0OkixHEO/sXapncoix7yiIlMi5t0z47vM2HMyj5dJRjYczppYMsKNX
lK4lUlSw/EDdoQqKOf8+OYaSvgMqGJqe3ScgH+nPIp6U1Akc7l+AIW5XvZH0
YhHvIFEbYBTk7CAdB3LkXT/j/ou01VZkwrLaURi7Jbx+bStsLsblBvPQqFhl
bGncXbSs7rrv1WIy41BPBB8cj1qR20WoUQU+6gfJPdUAzHN5QBwxfAFo9wfD
UQ6VfWSJtozl1sNU58oSvok2PhU3TQJ64z76sclJN4z+BzE74FanNo0UX0wy
sIEvvjCJj5YnuuiBF/kO7sfZ7T7D9c6m4jHesZI71WFWtVyhMeKYk+5YfuPn
rDJstL9MKHocjyygyNgvPFZuq9LJXRvjF9tzNv/t9jgVqHzR4Tn38w==
=GrK/
-----END PGP PUBLIC KEY BLOCK-----
