-----BEGIN PGP PUBLIC KEY BLOCK-----

xsFNBFy1FpcBEADemFRfa16qbsgvnEq5TPhFOssXfSLG4eGBrU0O6adDwv6Q
yE53fivsepaZ21xLXP8KdfJBe40XmsYDLk6I+1cQIoKLCDhN/omaCivJ0Qws
HKFqdhsD0mmGpRzN1nNXOV856tcWsj25T4V2ttPumvCV/ArITta0X2GPbF2o
YKbKjE93uZWRxogqHrD7QVzjlDvU6+gQ/TzIA/k0cG/LlOqhHTrR/VMvSzE9
LDn2YoWaC2Hk2NZEUby788vombTgPhTrCUmQwDsaXYUfILLhaiAdCqNc3aMc
Njc3VX1YjJG0pArx9V2NRPMR2UZQzSLgthEz/om9k7x9A9RG85Jo2AAmjrpI
l4NRawpKP+uXtIdr4huCzWT4r8e1DiMORKRvRPzua/kf+i8vjKWy16KRD5N6
rNOTjfoSQxkQTgh9fvLgJUAJ+UnLgLKXaijyyIisQ6O2zaI5jJMuSzBG129x
pdCeNB0Vmfuy8fBGttTg+OoP1mhnQtDAmh7k5EefFKDoKKgt2m+C6nlLr7pG
9EA5qMHbQikmZo33phi/yIIU0w8RahueC7A1rCvDla+lr9Y2o0Y+2VGTqkc3
7WadiCcF6DZ/rKMoajgafbJV3QsVBdD0rraqLfvK/+UfbbJuZdxb7LtBMGL3
5ENrVfFNZDiEFJs0eumDCk/KLGBVlL25PH6kIwARAQABzSNyaW90LmltIHBh
Y2thZ2VzIDxwYWNrYWdlc0ByaW90LmltPsLBlAQTAQoAPgIbAwULCQgHAgYV
CgkICwIEFgIDAQIeAQIXgBYhBBLUzWAMIkCp9KggcdewtmlB0BU4BQJkE2bT
BQkaKlM8AAoJENewtmlB0BU43pEQAJdDZB9K6I96r47wHWVFN7zfuY7uvDHX
Q2k4bjBIayDuDmShFaA9IhIkE9aeZz0tOjZCEs1zl0SeE0pWf69FPKOR0nxs
GJnM8lacIkGHWxnYzGD7dBP1k5z1efYirwZmHjf3FMqN1rjxkT9LLgPOl5DD
u927hxMfP7K0BNRBXg7ARq7siKkUxqvZSwotD6M8mpfr48K1new/DMEEbuGB
p5O3gmh3pPqUiNw2Q8aEbNjajz8fME+Tt5mp0wS40B19uPlYzqH+hIbDq+rh
lyEaSu4CuqJSY/IMhFqbs90d2NrrFjyvp/5xxXPv2AUu8Mursvtmrq+LI0qo
AszZyPqNhpQ1/mtXAfrq89WqUADgkUmcnBirlV0WAxWyBou9VbE6tse6jNHG
wruGwFP61sSWmK1aNsbQcsIjNm4062LcvA8oufVqp7FrlsQmzeZge+rBrqJi
9d8mRd3h4cykIyYiu8aTyVx7toosxXprPSZR9HuTLcl6fb3DwRCcsrmEeUNx
2rW55BnHEXvltPAkd5N583UrQlyMQ2+OxKOtiNw/6v0oF5RRA2oi7UfjwJDb
14uDV5xhhP/sh/SEhmGsf40U40VaTFH0m4FGwD/+V9l+eKkoVbc9IQziIgll
/g1zFXfS2F6AbNIrEu2yr2dKru++ZJ8mixmSpMR3GBbbHheEpgLwwsGUBBMB
CgA+FiEEEtTNYAwiQKn0qCBx17C2aUHQFTgFAly1FpcCGwMFCQlmAYAFCwkI
BwIGFQoJCAsCBBYCAwECHgECF4AACgkQ17C2aUHQFTj1Gw//bCo+OThUOEB/
XSg/YdbIT3yd8aZKuJkVCB7Bu+DBbNcx0iQakobE6yXpIUiBUAs8Y0T80FsK
Ofz32XbTtQyom3TKVnX1hmCgrAnBkE0MAY/FaCoJSfFknBnaIE4+riNjKf/C
HL3UfnlPR8gLIXRkNQlSPQJvk/mUBJ40loDHB5DquoCFVAVIPri3XJH/ewwh
JEdeXqPXaSjrBCZmBl/xVHQ2us/gQXzz3b9ulJsz1Kxl0JJG/KJEW48BPPrP
z6NAhSdWaUcgs8f95+7CRs+HgwCxBGDGlXNLAIi6unbNztHezTcMHYrg7HzG
VrCy9hBRU9wSDgQ5QrgwLRmXL505VSZXObfOP3tjRZE+QBqAnN56wjH8zimN
iD3MMhnbY1ZP13soBl6YtW1ETBYzjMpgQjQemJ3nLi5opo6HuEI2zCeis6i8
1D/CcMbRfvCIj36JJH+Z+jzg7JhjMafPdo8SOsq460wbFHyNDWsJz1ExV07r
G6GdXBQP8nI0SC1EpsElf2ogfZnfSu8iDt6/0wkbqDnZwPL6Kc13GHi7i+mp
COMtMGtpFqVR7/hLgjwRpQXJr3VFYMusRyaB1h+updsswARw9ZJxhB2NbcAM
TLjusZDZJ5pnB4u4cZXHryEJwnHkTRft4TfZHy5pGOYTOC9T7BkqjTIcVsux
CiTy/s2qiq3CwHMEEAEKAB0WIQRCU0NCbgUyybne7WyKH5PVdbXo1QUCXLUX
MwAKCRCKH5PVdbXo1SXwCACe4zI58tHKddx4f+QXxq1Bnye3Lz7UKBCEc1Gt
4W5DaGbZWQzTGfRC8hKQtfnI/BdU15HJbTEjDA7CA/ga73V9i6OBS/8/Zs8i
5CUCqtlcy9Hwhn3EtSJLXEKS2VljPKD/fpkV3ptxiTF+mUnzrIsfJry/LujI
Aqvs+jXcrWWrE8A2178CTgN+h6N+OfPCczNrR18qHteOodHORVd5CEayBWhY
+ywYqwTIjccMjgnO+k9qNIxJYdxuMpBKTZCrATCODkhMQGzc8KYouQpHuqrv
60pT+Iis8nvYGoyW4IpQT72zlG9xeQMeYSCcTY0E4sYnhlyxqMbGzsOMY1iW
cwb1wsBzBBABCAAdFiEEqFviOGjBMEdN9agbbrUIDmKIguUFAmDeSYQACgkQ
brUIDmKIguXvbggAvJIIik97mc91t3x9hcLXprDPIX3earFnYoHIsfaqWwSz
MirVES1NbGCxHREro/CsHHi7R/05PLPmZTGatjBQJp8DXULIgV0fxAf3qSxk
1KdU+6WkF1gFYQHfEMDsdvtwty9S2XcgUjxR81lU/XILezeZ/oBPMZG5/Jv0
3e7buetdb6k5EsyVDiAmZ8NaN/Ayq7kiy0r0PGXi7QOr1uU+/WU9mysrv81a
fnf/DtsX8LE/YmSvynCVJOZj0hGkufcSSab3HE1OqpE0Hs9ErnhYGdLk5umI
H5dVawvnDS/gt7ggTPOiaHPqDkgotGCsu7Fqu9uXZk6cQ9XRhaCrj6pxJsLB
cwQQAQoAHRYhBHZOgXvbYDc47/n5Cn7Ja7trlbY4BQJkOleAAAoJEH7Ja7tr
lbY4kC0P/2aasZxc2nH5P+1egMA/a7fI3W/NSWQ8X0yPWk+mi+L+eLl1umSX
xRxgDkZzH+N+1cAtB+xcURfPbU6ifeQ+daqk/ldGz9qToSeG6UKfNcfOS2fF
muTkkD8QrDZVmcm2bl5orJUusyigCvOzhANTW4AmQkK3UR+PR4i1wAPDZXBC
cFBycH98GeeYHf307/I8FQ79lhtOPrmmU22Rx4Dioo5kIU6cfVsF/msZEmb2
f+ETxAJbDyFmJIUlz9Hz2ZqMRDE8I0tHTHr2J4IftVfRUDpjV/FpRXUCIZYg
E3bpzu7R2wdL2CVjvQdBPR6VZs9GqAGofS6ouXr2thfwCd6jgFf3XYvhGDh7
QXYLxNncGO4peSPL2clvdX4awV/FLoY10vozunZbgaa1qGhH+b1IqiEiuNVk
xXTPDSzMqQuuHHewgLVYXqipgI103KqH1s+DlLt6qy6i4UT37Jmze1UihPbb
aCF+VB4WJ07U1jMjF6BUTEUd9alNz1uQSBUkFPGtllRcBJpoaB7qSjzdO6Nx
p9cQN9zbyc1doQ9mOFDxWQvkMellVPHP/kZPQUvjaOpwwzHH9GC2WeA7Gh/S
iba/UvZyTp6LFl842zsGBob/MqsrLwh6iEyds9/deX5mE0zztwGeSWYYoeyR
IM4Tk4Wbt6PlO5ozYuiFUPthsLMI/QVDzsDNBFy1FtQBDADPalE7/hP0kt7a
fhFoY/sGyO/464BA4OzoMaQC28d4JJCd07upnyj1aLGHfYyO6TXC1cqOQ2tT
hENyTfJOhVDQ9YCjqDzm4S5VR91tNzvYNZOEIwRRPND2jpnmsCzwrnIRHNIi
ojHBZRnPdC01zcx4oC1m13qDiFSUNOi/uDlAXtOf8p0zVnPypaGTG7MUBU8R
mkyygvG+Z6AqNDOsDL/nIC5mf2zmLJqKVkEeXnWhWBEVgIdr840vi/ejblmV
RxanlyGVFY/5CWgylmGxxB0Oh5vz7SjpK5H5pONBo43K2tEjnU1jmWTX7tkH
Yo8wyQS04uO33qh01FLnYl1I0qebfwBys88i/yhr9afxcXae5xTLUPzPp+6W
YICxRdJ41/3zwlyKbNLvyNQzv43kiRYNR3Yc44F1tHMq1Ty3kca7Qe0zGXXe
ISY3fUA4zKjg0S8bi3yfO5Z/FxpMhjJ+tAcDoiVrXZwsXCsdMnQR0KVjzIAm
CuJI7OUnujuAB9aMYSEAEQEAAcLDMgQYAQoAJgIbAhYhBBLUzWAMIkCp9Kgg
cdewtmlB0BU4BQJnxZR4BQkO4rakAcAJENewtmlB0BU4wPQgBBkBCgAdFiEE
dXQYkAY+XppGE10BwoULJlrAhb0FAly1FtQACgkQwoULJlrAhb2g2AwAz1QT
Zu+bmbRDzjNgraMQEmq2zwy8/FHMuhQrTqEqTXYAGRUyEhQElnwTuof/cOXM
096MEA+N9VfedEARxre+t1RSC3JGdFJeK6BhnrJp3EVCGS63PlAAYoIqx5gn
Z76PbOVLM08YndJrjGw3i29UZiNLZEQ85ZP065Bw3+6yFK3KoT6obUdG++TH
6LBGqMFTfpEvT6shbV7Kygf4jP4I71ZxBHyFQ2ivpXOhAW6nySzAmuc+twkh
KjFIVj9KlxqAO2TOgM2qZcwk6+WgfXUATVOd0lKN+Ts25UEqkdIMrgmK7zh7
YrI03a61DbCG8o5FDnOVJqcc7PV5mPeA+RX3cXgC72HLNoTBEFj6CDVcfO6d
bVo8J5j81xptqtPeYC/srDkuTnijmjxD1n1HuzVHf1idxqr7T4hfvjzBAwYj
wZuYMK34PDXfcTaEZ7UWaDiiQ3Cdv4YR+fuMz1ueDvGeMQWjho21mEzMSsPz
PbEZhyL11XEJlnT4QjiD9V0J3SaAj/gP/joEHCWocUhlR7w/KiaE9PSedxW9
4iK82KNodwkJCmmn86PfFgUU9xFWtfee4XZcf3UwXp0NDggCawkiwNuwuo33
9Dv34Td3hkLbwmxqcILDRuHxZAN7VHQczvAfA4OqrgWJSNJefUofMdnc+fU8
y9hULzw1k6BoN23V3AbbrrCNEM00OTA33+p1aDI6O/2ueMSf/58SvlLIhRYf
6gZ9u37tRzzU4v4Kd7yuwkCQBS0jjaObXUaM9JNvt9+ztGbtPJq7RFeYHonT
gefitMx4bz6DYv0e1PpeG6Ps3xl57SGWeX0f9O2KgcVTudbLzGao8XOSh9Kk
v8A4dkLMjFhN96FcBV+ka1fY/bhi0H2P1+WP8sI06WBHNREveUy4Oi0zGWE9
TzwQ9+H1lDU1eB2OYUNQoOGiWJidFnMp+0qpJtZ6C580e0mct1j5nkQj8gRY
tp90qOwNHJ7M/3t2erXzfRLVjwYoL/xiZOS5WMCTmXjRYJ3Q1emb0LbnuOSt
pnz31bTY5H95uoYu/kFVYLChx+dERlZoBuzKTNBQ+WTg/7CJ7I/AV2X+Fkdo
kykRpigBzSjjLfkabmkYxWRubdPFSq2VEK6E2yA4ODXVN2DQhJKE7wEQPGtR
ohxjKqPG5SpnPb2pCUMRXUbolw0nsNNm0eiWqq9/HdJbGpMoBiDLCFuOwsMy
BBgBCgAmAhsCFiEEEtTNYAwiQKn0qCBx17C2aUHQFTgFAmQTZvoFCQsgtyYB
wAkQ17C2aUHQFTjA9CAEGQEKAB0WIQR1dBiQBj5emkYTXQHChQsmWsCFvQUC
XLUW1AAKCRDChQsmWsCFvaDYDADPVBNm75uZtEPOM2CtoxASarbPDLz8Ucy6
FCtOoSpNdgAZFTISFASWfBO6h/9w5czT3owQD431V950QBHGt763VFILckZ0
Ul4roGGesmncRUIZLrc+UABigirHmCdnvo9s5UszTxid0muMbDeLb1RmI0tk
RDzlk/TrkHDf7rIUrcqhPqhtR0b75MfosEaowVN+kS9PqyFtXsrKB/iM/gjv
VnEEfIVDaK+lc6EBbqfJLMCa5z63CSEqMUhWP0qXGoA7ZM6AzaplzCTr5aB9
dQBNU53SUo35OzblQSqR0gyuCYrvOHtisjTdrrUNsIbyjkUOc5Umpxzs9XmY
94D5FfdxeALvYcs2hMEQWPoINVx87p1tWjwnmPzXGm2q095gL+ysOS5OeKOa
PEPWfUe7NUd/WJ3GqvtPiF++PMEDBiPBm5gwrfg8Nd9xNoRntRZoOKJDcJ2/
hhH5+4zPW54O8Z4xBaOGjbWYTMxKw/M9sRmHIvXVcQmWdPhCOIP1XQndJoC0
fhAAkFjvOCW1KklZCJwDyfnbFl6vWXJtRsMIqbKGg5GUg1mTF9mI9kylW3qh
AzbgQufyhUsMgSgd3nQVMvKJ62KkXS8dKqkI9jxURaOCM97IvuogRBkLSuTm
V4wZLg7s8XDUZafUqKKrn+Z/XS2l0Fo+iHx+blZaZH/xKAihLlqkR6Z/zaTe
BqHPpuGT1OniYia+UTJ7+JR4Ccp9NyGUW5bahC9IAThDsVBIVSb5JJ8OWk02
a6/Dh54eteA7qtWrK61OY2qMBljJ33jj8k9KA4Jp1M4NJD6zZIa6P0m0lsc1
aQvnWqVSIOLnRslNN14Fz+gtabCn3QTKGaDM0l9ROWiLUucq/ShslFMEIdJt
JM81A9bVSVNEJi6U6MPztiGlfnNYjzgeQGeH18gavF/zblg5jeNiYc4LY0Mm
/e8MvfwAakJ+X8tSjQIzeMjiB64v1GPstDrlNu4OJknyQgRAPh/ZrfAoLwgd
MXWGg343NbqvVKBALXrmOG7KPSqQfOFLSXrRDsUFmCXuy1UYoWtN+8EzqcYA
9iYRz1PH//xaHEF5GTcTnjUlkCzP1OXdl/SEozmRkcnLZN1Rylr+Ob9GzrOj
Z0+LVEmlfvfCXgdXlQpjqyr4JsaDRivp/ZHbW6xm/ZC3zGqwL8dfxkxwum/a
EOdG0OiIJCjkNf5oiBRITvpLIqnCwzIEGAEKACYCGwIWIQQS1M1gDCJAqfSo
IHHXsLZpQdAVOAUCZBNm+gUJCyC3JgHAwPQgBBkBCgAdFiEEdXQYkAY+XppG
E10BwoULJlrAhb0FAly1FtQACgkQwoULJlrAhb2g2AwAz1QTZu+bmbRDzjNg
raMQEmq2zwy8/FHMuhQrTqEqTXYAGRUyEhQElnwTuof/cOXM096MEA+N9Vfe
dEARxre+t1RSC3JGdFJeK6BhnrJp3EVCGS63PlAAYoIqx5gnZ76PbOVLM08Y
ndJrjGw3i29UZiNLZEQ85ZP065Bw3+6yFK3KoT6obUdG++TH6LBGqMFTfpEv
T6shbV7Kygf4jP4I71ZxBHyFQ2ivpXOhAW6nySzAmuc+twkhKjFIVj9KlxqA
O2TOgM2qZcwk6+WgfXUATVOd0lKN+Ts25UEqkdIMrgmK7zh7YrI03a61DbCG
8o5FDnOVJqcc7PV5mPeA+RX3cXgC72HLNoTBEFj6CDVcfO6dbVo8J5j81xpt
qtPeYC/srDkuTnijmjxD1n1HuzVHf1idxqr7T4hfvjzBAwYjwZuYMK34PDXf
cTaEZ7UWaDiiQ3Cdv4YR+fuMz1ueDvGeMQWjho21mEzMSsPzPbEZhyL11XEJ
lnT4QjiD9V0J3SaACRDXsLZpQdAVOLR+EACQWO84JbUqSVkInAPJ+dsWXq9Z
cm1GwwipsoaDkZSDWZMX2Yj2TKVbeqEDNuBC5/KFSwyBKB3edBUy8onrYqRd
Lx0qqQj2PFRFo4Iz3si+6iBEGQtK5OZXjBkuDuzxcNRlp9Sooquf5n9dLaXQ
Wj6IfH5uVlpkf/EoCKEuWqRHpn/NpN4Goc+m4ZPU6eJiJr5RMnv4lHgJyn03
IZRbltqEL0gBOEOxUEhVJvkknw5aTTZrr8OHnh614Duq1asrrU5jaowGWMnf
eOPyT0oDgmnUzg0kPrNkhro/SbSWxzVpC+dapVIg4udGyU03XgXP6C1psKfd
BMoZoMzSX1E5aItS5yr9KGyUUwQh0m0kzzUD1tVJU0QmLpTow/O2IaV+c1iP
OB5AZ4fXyBq8X/NuWDmN42JhzgtjQyb97wy9/ABqQn5fy1KNAjN4yOIHri/U
Y+y0OuU27g4mSfJCBEA+H9mt8CgvCB0xdYaDfjc1uq9UoEAteuY4bso9KpB8
4UtJetEOxQWYJe7LVRiha037wTOpxgD2JhHPU8f//FocQXkZNxOeNSWQLM/U
5d2X9ISjOZGRyctk3VHKWv45v0bOs6NnT4tUSaV+98JeB1eVCmOrKvgmxoNG
K+n9kdtbrGb9kLfMarAvx1/GTHC6b9oQ50bQ6IgkKOQ1/miIFEhO+ksiqcLD
MgQYAQoAJgIbAhYhBBLUzWAMIkCp9KggcdewtmlB0BU4BQJgd9oUBQkHhSpA
AcAJENewtmlB0BU4wPQgBBkBCgAdFiEEdXQYkAY+XppGE10BwoULJlrAhb0F
Aly1FtQACgkQwoULJlrAhb2g2AwAz1QTZu+bmbRDzjNgraMQEmq2zwy8/FHM
uhQrTqEqTXYAGRUyEhQElnwTuof/cOXM096MEA+N9VfedEARxre+t1RSC3JG
dFJeK6BhnrJp3EVCGS63PlAAYoIqx5gnZ76PbOVLM08YndJrjGw3i29UZiNL
ZEQ85ZP065Bw3+6yFK3KoT6obUdG++TH6LBGqMFTfpEvT6shbV7Kygf4jP4I
71ZxBHyFQ2ivpXOhAW6nySzAmuc+twkhKjFIVj9KlxqAO2TOgM2qZcwk6+Wg
fXUATVOd0lKN+Ts25UEqkdIMrgmK7zh7YrI03a61DbCG8o5FDnOVJqcc7PV5
mPeA+RX3cXgC72HLNoTBEFj6CDVcfO6dbVo8J5j81xptqtPeYC/srDkuTnij
mjxD1n1HuzVHf1idxqr7T4hfvjzBAwYjwZuYMK34PDXfcTaEZ7UWaDiiQ3Cd
v4YR+fuMz1ueDvGeMQWjho21mEzMSsPzPbEZhyL11XEJlnT4QjiD9V0J3SaA
lpQQAK4hX6My0ehfuXoEl9BZE0T+HCFvwgH6xUoAjocZEw7l3ud6M4OouIao
ODE/Fqgmg/kFXjwyl/VQRDalMzi6ajPM6T3AOhv+d2oeNNJCSoilQUsJwAzM
HDncbt7rGAb5SoeFEKdwu07lXRIVPhjmC+CgWT24Osv8dmOCj60jBaGdKEnm
mdQ8Kq+h2k21oI2ITYhjQBPcpxj0RSIJQHVHBYF3hgIZSWOeEg6ocx+3BLR2
InEFwEK/GM9iXkwTadr53AyaPAcOTaOeSQYKya3onQDI1LFhU5XnLg6YX1PK
pKQMtouyM77RxqXk7QMsY0S9y8rveH5AK5Iou5IFcpXslVNyw63UFGiUQWKn
YUMEm14Kzz/4EOVCDPjMY4Uj9rkhrNR2Oc1fqtFNDMfbQKpxP6JlIHnTFRRY
kbW98/oHAvVekysYq29CVg5MjVqPw6ek//nOPuiFXa1dR3sMntsP+atG5imB
INmRRzQ0Ha5CnX4a0PE4ZnTwLPPDDz0Hp2Rf+X5AgKbCRA6s+O0juqKBcwdp
/lWaMfm2KSBjLKalf654NeoKCHh1x5896NM5xVplUeI+G/FygG4XwKBuw408
ZLlSgF7Dd02BMKptjLkIrnAEG8abvcRIgf2q+QwX3H8EjxIwng3BGYCBP1LW
3ulIrcfJ96/PkZG8MYuSCCIHzNkBwsMyBBgBCgAmAhsCFiEEEtTNYAwiQKn0
qCBx17C2aUHQFTgFAmB32hQFCQeFKkABwMD0IAQZAQoAHRYhBHV0GJAGPl6a
RhNdAcKFCyZawIW9BQJctRbUAAoJEMKFCyZawIW9oNgMAM9UE2bvm5m0Q84z
YK2jEBJqts8MvPxRzLoUK06hKk12ABkVMhIUBJZ8E7qH/3DlzNPejBAPjfVX
3nRAEca3vrdUUgtyRnRSXiugYZ6yadxFQhkutz5QAGKCKseYJ2e+j2zlSzNP
GJ3Sa4xsN4tvVGYjS2REPOWT9OuQcN/ushStyqE+qG1HRvvkx+iwRqjBU36R
L0+rIW1eysoH+Iz+CO9WcQR8hUNor6VzoQFup8kswJrnPrcJISoxSFY/Spca
gDtkzoDNqmXMJOvloH11AE1TndJSjfk7NuVBKpHSDK4Jiu84e2KyNN2utQ2w
hvKORQ5zlSanHOz1eZj3gPkV93F4Au9hyzaEwRBY+gg1XHzunW1aPCeY/Nca
barT3mAv7Kw5Lk54o5o8Q9Z9R7s1R39Yncaq+0+IX748wQMGI8GbmDCt+Dw1
33E2hGe1Fmg4okNwnb+GEfn7jM9bng7xnjEFo4aNtZhMzErD8z2xGYci9dVx
CZZ0+EI4g/VdCd0mgAkQ17C2aUHQFTiWlBAAriFfozLR6F+5egSX0FkTRP4c
IW/CAfrFSgCOhxkTDuXe53ozg6i4hqg4MT8WqCaD+QVePDKX9VBENqUzOLpq
M8zpPcA6G/53ah400kJKiKVBSwnADMwcOdxu3usYBvlKh4UQp3C7TuVdEhU+
GOYL4KBZPbg6y/x2Y4KPrSMFoZ0oSeaZ1Dwqr6HaTbWgjYhNiGNAE9ynGPRF
IglAdUcFgXeGAhlJY54SDqhzH7cEtHYicQXAQr8Yz2JeTBNp2vncDJo8Bw5N
o55JBgrJreidAMjUsWFTlecuDphfU8qkpAy2i7IzvtHGpeTtAyxjRL3Lyu94
fkArkii7kgVyleyVU3LDrdQUaJRBYqdhQwSbXgrPP/gQ5UIM+MxjhSP2uSGs
1HY5zV+q0U0Mx9tAqnE/omUgedMVFFiRtb3z+gcC9V6TKxirb0JWDkyNWo/D
p6T/+c4+6IVdrV1Hewye2w/5q0bmKYEg2ZFHNDQdrkKdfhrQ8ThmdPAs88MP
PQenZF/5fkCApsJEDqz47SO6ooFzB2n+VZox+bYpIGMspqV/rng16goIeHXH
nz3o0znFWmVR4j4b8XKAbhfAoG7DjTxkuVKAXsN3TYEwqm2MuQiucAQbxpu9
xEiB/ar5DBfcfwSPEjCeDcEZgIE/Utbe6Uitx8n3r8+Rkbwxi5IIIgfM2QHC
wzIEGAEKACYWIQQS1M1gDCJAqfSoIHHXsLZpQdAVOAUCXLUW1AIbAgUJA8Jn
AAHACRDXsLZpQdAVOMD0IAQZAQoAHRYhBHV0GJAGPl6aRhNdAcKFCyZawIW9
BQJctRbUAAoJEMKFCyZawIW9oNgMAM9UE2bvm5m0Q84zYK2jEBJqts8MvPxR
zLoUK06hKk12ABkVMhIUBJZ8E7qH/3DlzNPejBAPjfVX3nRAEca3vrdUUgty
RnRSXiugYZ6yadxFQhkutz5QAGKCKseYJ2e+j2zlSzNPGJ3Sa4xsN4tvVGYj
S2REPOWT9OuQcN/ushStyqE+qG1HRvvkx+iwRqjBU36RL0+rIW1eysoH+Iz+
CO9WcQR8hUNor6VzoQFup8kswJrnPrcJISoxSFY/SpcagDtkzoDNqmXMJOvl
oH11AE1TndJSjfk7NuVBKpHSDK4Jiu84e2KyNN2utQ2whvKORQ5zlSanHOz1
eZj3gPkV93F4Au9hyzaEwRBY+gg1XHzunW1aPCeY/NcabarT3mAv7Kw5Lk54
o5o8Q9Z9R7s1R39Yncaq+0+IX748wQMGI8GbmDCt+Dw133E2hGe1Fmg4okNw
nb+GEfn7jM9bng7xnjEFo4aNtZhMzErD8z2xGYci9dVxCZZ0+EI4g/VdCd0m
gExeEACPH4USF03wP8EcSSKs6DXtCHPv+PqEMD6w0AckI2scEKQ0b45xY4AS
EytQlHDpZ+HQLJ22JJ2WT9z+ZL6KC2mAafW5GTpyL6VlWbikiN4V2ueIV3Z1
sW9m5342RmqM7OKum2F2phrWfauQxRxwp+bCU7TfbF+PNedbdqsyXNLUdgM0
1GnjTL5sWNp3GJPC22RBjC1Ssc9+e+sde2/HkoBbpCd0xc7wN6cPO+SpGJSk
WnvOfEnBLGwk8fLZz3wfwVZe8A8tmPMrQNievnPvoz2urkkFYaZ8bOLtYRK/
3RtALnz4fpuwqOwNdPOGbXVhXPQZ7euJ7pCuIbCbcYxYJJd1UdFMnFB/YkXB
s/O7TOQzoIEGlNBLzg8d6rnm+Hg8o/PrKwLqYTgvrjSm2DbbP0T38tlgxM2J
NP9+AELqcgvafnaq0H+jGvM2gCu70Jv0qfzuK9BYiR4kOAq9vT2D8doWDOF4
yX71KT81ntz4qHNRyf7foTIDpxQ1QgYGtpJ3yjp4tcoElFbHBDIZ6TcPh4xP
8Yw8AkvvsnYGARxZDEF+FfH6mikEJSoa6++byxdkmVuQzTj0ZSNev4Z68MF1
NhV3vZP2GjQte14vv+o35cEMLqEybxi6EPBLbl1B841zDty55Jp6QjK9uAxc
CLHZiN5ffK6lKvdRBhT0l91/+ZrRJQ==
=rTLF
-----END PGP PUBLIC KEY BLOCK-----
