-----BEGIN PGP PUBLIC KEY BLOCK-----

xsFNBGSEpywBEACn1DbqO5RrpaA5EiEpXbNrPeaxGgy6v53DLlgPOsUc4MSo
z8uNQw6n+yFPVjlWmk3nyhNdwZH2ImsKyYTvC7wt3Bn9IIvCuGmKC9xy6dd+
fsCHf6m4BYpVWBhhCixp291sBiQ+jYPhZ2Ch8DpAm92Lgqp2A/r6//Gz0jt/
5i9NblHuiYZ+achuyYGGp2tJpWG1A5/q0DpgMqq2pWNPu6+sh/iecMq992KC
bzkyq/nTy9niYVvpc6Ms7N5q25hYD6090M2gR2PtNv+SPssEv9kjQEIwoThe
JXxZ/5uTPDKy/ymtsu4dVTTMyubr4cZltW0q0WQWrgzcjVwbcbmMgl6ouzB1
SIzvOBNodHZIuKnaLmqrZwGG3wnM98RGYaotAj/BLdwXeBTLO5IgZSGI5Ycw
AREVBK0LUtKQj4Ypj7JTxv62XySrwuuYuximxfSAmbiXuVsPe3Y6yQPUNZ+m
kvYpkbS/zKxN7EVzwZsUDyNfwkWXc2bQBowSEyKYNMdR8SjdS0D1Gtc1QbVM
d4mYuQqK3gz3SK4mBdePFBAUwjLbTwhZE92R27hb3qNSQkYM9lCUqxyHKhAP
pr/Xf+ZrKpqBJErU1ve0JQiuGMfQ3RUJeBJGSTesgAHjfEYLLqrPtk0dZ566
j6inlpqoKRcjWzM9oik4j0v65AwGOVNe59AjuwARAQABzRRYcHJhIDx4cHJh
QHhwcmEub3JnPsLBkgQTAQoAPBYhBLSZO1cyMUjjeXfl2HMlTK0Xl4+vBQJk
hKcsAhsDBQkSzAMABAsJCAcEFQoJCAUWAgMBAAIeBQIXgAAKCRBzJUytF5eP
r4TbD/9oP4stXK0LeQQtZindGc2VC4LxDL78KmDCYOEblGj3B8JS+3D6m3E2
NKAUlnKtgMQAMKKkpk9LNYwPr/H/0HBjpWmQgI9dJzvKZRAkCE23hdiCHv8y
qqrGJmrOsU5+vsozM9b/eh5UJw2klxVyGgZHAdmF73MfSAy26Wf9IArecVCf
0lyCCaF6rNCkNquvq2d58B6Wvn/DdVQgwS+UUfd557+EbWrIu2txPeROfYtE
uMGc7dMDC/fWMutx97+7sVPASrfPIFZ/WPHsPnyXbKqDYKu+1cWCwljp6PqO
BArnAa4++elKAQ2VeOkwnYplp0/aPkGqQSJ+bD5rYVMOKXkpsEDOFZs3a38F
1lqFakRQlJPxv2qcqHd/G6kkYRetX6ONqyqy32DJO6dEXKwZJGIr6/4bQ/u+
eQVDi2JrHvjy6d/4VPTDeoXP0hzH4Z42XycfymLQSP1TVgQ/Tw9svT277dqS
UCH+a0n/JdWd+b/fF/5P9aU2kTYpvcC/jxa1gsJIV4Bm7sQvVZuNKLnkYsLm
Sj59MdKqLLnOOIzUmEb7MbCeaFTb7x6Ah5s6m1iefFh2rAiPMJzi7Mz1f3f7
jWytFMzsgOZid5pjvg7jXxXiq8WXpCyvnAMK2pOnzT1wXAfUBIPgs/0VEUBT
xyOpcIM6tS7Ft34iLjGTexpMQyIeL8JdBBARCgAdFiEEwRwKTfcC7fbAT0WM
GK2zHPGK1rsFAmSFfHQACgkQGK2zHPGK1ruP0QCeKx0KIqaPMfNZeB4mgdYv
ZKnr8woAn1L7xe+Uxcq3b9X5zlkihFDHVKer
=i+cD
-----END PGP PUBLIC KEY BLOCK-----
